X: 12
T: Friday Night Mixer
M: 2/4
L: 1/8
Q: 1/4=240
K: G
%%MIDI gchord fz
%%MIDI program 23
%%MIDI bassprog 32
|:GA        |"b"B2 BG |"a"A2 AF |"g"G2 GE |"d"D2G2|\
  "f"F2FB,  |"e"A,2 E2|"d"DCDC  |"b"B,2 GA|
  "b"B2 BG  |"a"A2 AF |"g"G2 GE |"d"D2G2  |\
  "f"F2A,B, |"e"C2E2  |"f#"G2 GF|[1"g"G2  :|"g"G4 |
|:"g"G,3B,  |"d"D2G2  |"e"EFGE  |"d"D3G   |\
  "f#"F2A,B,|"c"CB,CE |"d"DEDC  |"b"B,4   |
  "g"G,3B,  |"d"D2G2  |"e"EFGE  |"d"D3G   |\
  "f#"F2A,B,|"c"CDEF  |"f#"GFGF |"g"G4    :|
